storage/app/icons/phosphoricons/bold/traffic-signal-bold.svg

<svg xmlns="http://www.w3.org/2000/svg" fill="currentColor" viewBox="0 0 256 256"><path d="M216 140h-12V84h12a12 12 0 0 0 0-24h-12V40a20 20 0 0 0-20-20H72a20 20 0 0 0-20 20v20H40a12 12 0 0 0 0 24h12v56H40a12 12 0 0 0 0 24h12v52a20 20 0 0 0 20 20h112a20 20 0 0 0 20-20v-52h12a12 12 0 0 0 0-24m-36 72H76V44h104Zm-52-92a32 32 0 1 0-32-32 32 32 0 0 0 32 32m0-40a8 8 0 1 1-8 8 8 8 0 0 1 8-8m0 120a32 32 0 1 0-32-32 32 32 0 0 0 32 32m0-40a8 8 0 1 1-8 8 8 8 0 0 1 8-8"/></svg>

<svg xmlns="http://www.w3.org/2000/svg" viewBox="0 0 256 256" fill="currentColor"><path d="M216,140H204V84h12a12,12,0,0,0,0-24H204V40a20,20,0,0,0-20-20H72A20,20,0,0,0,52,40V60H40a12,12,0,0,0,0,24H52v56H40a12,12,0,0,0,0,24H52v52a20,20,0,0,0,20,20H184a20,20,0,0,0,20-20V164h12a12,12,0,0,0,0-24Zm-36,72H76V44H180Zm-52-92A32,32,0,1,0,96,88,32,32,0,0,0,128,120Zm0-40a8,8,0,1,1-8,8A8,8,0,0,1,128,80Zm0,120a32,32,0,1,0-32-32A32,32,0,0,0,128,200Zm0-40a8,8,0,1,1-8,8A8,8,0,0,1,128,160Z"/></svg>
